docs/icons/bx.svg

<svg xmlns="http://www.w3.org/2000/svg" width="48" height="48" fill="none" xmlns:v="https://vecta.io/nano"><g clip-path="url(#A)" stroke="#fff" stroke-width="4" stroke-linejoin="round"><path d="M24 10l-12 8 12 8 12-8-12-8z"/><path d="M24 10l12 8 5-7-11-7-6 6z"/><path d="M24 10l-12 8-5-7 11-7 6 6zm19 12l-7-4-12 8 7 5 12-9z"/><path d="M5 22l7-4 12 8-7 5-12-9z"/><path d="M36 28v9l-12 7-12-7v-9" stroke-linecap="round"/></g><defs><clipPath id="A"><path fill="#fff" d="M0 0h48v48H0z"/></clipPath></defs></svg>

<?xml version="1.0" encoding="UTF-8"?><svg width="48" height="48" viewBox="0 0 48 48" fill="none" xmlns="http://www.w3.org/2000/svg"><g clip-path="url(#icon-e7837f578df3014)"><path d="M24 10L12 18L24 26L36 18L24 10Z" fill="none" stroke="#ffffff" stroke-width="4" stroke-linejoin="round"/><path d="M24 10L36 18L41 11L30 4L24 10Z" stroke="#ffffff" stroke-width="4" stroke-linejoin="round"/><path d="M24 10L12 18L7 11L18 4L24 10Z" stroke="#ffffff" stroke-width="4" stroke-linejoin="round"/><path d="M43 22L36 18L24 26L31 31L43 22Z" stroke="#ffffff" stroke-width="4" stroke-linejoin="round"/><path d="M5 22L12 18L24 26L17 31L5 22Z" stroke="#ffffff" stroke-width="4" stroke-linejoin="round"/><path d="M36 28V37L24 44L12 37V28" stroke="#ffffff" stroke-width="4" stroke-linecap="round" stroke-linejoin="round"/></g><defs><clipPath id="icon-e7837f578df3014"><rect width="48" height="48" fill="#ffffff"/></clipPath></defs></svg>
